tenants/businesswise/icons/channel_linkedin.svg

<svg fill="none" height="32" viewBox="0 0 32 32" width="32" xmlns="http://www.w3.org/2000/svg" xmlns:xlink="http://www.w3.org/1999/xlink"><clipPath id="a"><path d="m0 0h32v32h-32z"/></clipPath><g clip-path="url(#a)" fill="#000"><path clip-rule="evenodd" d="m16 1.88235c-7.79696 0-14.11765 6.32069-14.11765 14.11765 0 7.797 6.32069 14.1176 14.11765 14.1176 7.797 0 14.1176-6.3206 14.1176-14.1176 0-7.79696-6.3206-14.11765-14.1176-14.11765zm-16 14.11765c0-8.83656 7.16344-16 16-16 8.8366 0 16 7.16344 16 16 0 8.8366-7.1634 16-16 16-8.83656 0-16-7.1634-16-16z" fill-rule="evenodd"/><path d="m11.9381 10.4698c-.0002.3896-.1552.7632-.4308 1.0385-.2756.2754-.6494.43-1.039.4298s-.76318-.1552-1.03855-.4308c-.27536-.2756-.42994-.6494-.42975-1.039s.15516-.76318.43079-1.03855c.27564-.27536.64941-.42994 1.03901-.42975s.7632.15516 1.0385.43079c.2754.27564.43.64941.4298 1.03901zm.0441 2.5561h-2.93813v9.1962h2.93813zm4.6421 0h-2.9234v9.1962h2.8941v-4.8258c0-2.6883 3.5036-2.9381 3.5036 0v4.8258h2.9014v-5.8247c0-4.532-5.1857-4.3631-6.405-2.1375z"/></g></svg>

<svg width="32" height="32" viewBox="0 0 32 32" fill="none" xmlns="http://www.w3.org/2000/svg">
<g clip-path="url(#clip0_2137_28210)">
<path fill-rule="evenodd" clip-rule="evenodd" d="M16 1.88235C8.20304 1.88235 1.88235 8.20304 1.88235 16C1.88235 23.797 8.20304 30.1176 16 30.1176C23.797 30.1176 30.1176 23.797 30.1176 16C30.1176 8.20304 23.797 1.88235 16 1.88235ZM0 16C0 7.16344 7.16344 0 16 0C24.8366 0 32 7.16344 32 16C32 24.8366 24.8366 32 16 32C7.16344 32 0 24.8366 0 16Z" fill="black"/>
<path d="M11.9381 10.4698C11.9379 10.8594 11.7829 11.233 11.5073 11.5083C11.2317 11.7837 10.8579 11.9383 10.4683 11.9381C10.0787 11.9379 9.70512 11.7829 9.42975 11.5073C9.15439 11.2317 8.99981 10.8579 9 10.4683C9.00019 10.0787 9.15516 9.70512 9.43079 9.42975C9.70643 9.15439 10.0802 8.99981 10.4698 9C10.8594 9.00019 11.233 9.15516 11.5083 9.43079C11.7837 9.70643 11.9383 10.0802 11.9381 10.4698ZM11.9822 13.0259H9.04407V22.2221H11.9822V13.0259ZM16.6243 13.0259H13.7009V22.2221H16.595V17.3963C16.595 14.708 20.0986 14.4582 20.0986 17.3963V22.2221H23V16.3974C23 11.8654 17.8143 12.0343 16.595 14.2599L16.6243 13.0259Z" fill="black"/>
</g>
<defs>
<clipPath id="clip0_2137_28210">
<rect width="32" height="32" fill="white"/>
</clipPath>
</defs>
</svg>
